X: 5
T: Inisheer
R: waltz
M: 3/4
L: 1/8
K: Gmaj
D2|:B3A Bd | B3A Bd | E3B AB | D3B AG |
B3A Bd | B3A Bd | G3B AB|1 G4D2:|2 G6||
e3f ed | B3A Bd |ef ed Bd |
e3f gf | e3f ed | B3A Bd | D3B AB|
G6 | e3f ed | B3A Bd | ef ed Bd |
e3f gf | e3f ed | B3A Bd | D3B AB| G6 ||


Tune 211	Setting 22687

